svgs/caixasign.svg

<svg xmlns="http://www.w3.org/2000/svg" viewBox="0 0 192 192"><path d="M88.749 175.745c-34.051-3.381-62.063-27.365-70.388-60.265-3.753-14.834-2.999-31.61 2.063-45.926 4.071-11.513 9.723-20.539 18.456-29.473 13.282-13.586 29.51-21.507 48.526-23.686 4.341-.497 17.374-.403 17.906.129.131.131-.516 1.406-1.438 2.834-.922 1.428-2.054 3.435-2.515 4.46l-.839 1.864-5.114.002c-15.317.008-30.361 5.229-42.593 14.783-4.013 3.134-10.118 9.303-13.077 13.214-7.234 9.561-12.082 21.627-13.618 33.893-.742 5.929-.313 16.819.885 22.441 6.046 28.376 28.179 49.965 56.675 55.281 6.604 1.232 19.487 1.12 25.795-.225 25.297-5.392 45.254-22.859 53.132-46.503 2.76-8.28 3.463-12.731 3.497-22.117.019-5.231-.189-9.537-.553-11.464-.565-2.983-.553-3.109.356-3.748.518-.364 2.411-1.799 4.207-3.19l3.265-2.529.433 1.647c1.871 7.126 2.68 18.942 1.833 26.78-4.098 37.913-33.46 67.485-71.114 71.622-3.983.438-12.22.529-15.78.176Zm-12.687-58.038c-9.553-9.588-9.801-9.882-9.801-11.629 0-1.129.329-2.21.889-2.922 1.049-1.333 3.435-2.224 4.944-1.845.589.148 3.732 2.934 6.983 6.192 3.251 3.258 6.118 5.924 6.37 5.924.252 0 7.283-7.342 15.624-16.315 8.341-8.972 15.197-16.314 15.236-16.314.038 0 1.637.893 3.552 1.984 1.915 1.092 3.723 1.984 4.017 1.984.295 0 .659.199.809.442.208.337-27.367 30.474-37.222 40.679l-1.6 1.656Zm55.143-58.2c.231-3.276 1.153-7.832 2.072-10.236.634-1.66 1.839-6.03 1.694-6.143-.08-.063-2.344-.345-5.031-.628-6.3-.663-12.751-2.252-12.751-3.141 0-1.033 3.256-2.558 6.618-3.101 2.781-.449 8.869-.29 10.9.285.549.155.211-.679-1.213-2.988-1.159-1.881-1.975-3.736-1.975-4.493 0-1.265.039-1.286 1.944-1.071 2.309.26 5.357 1.666 8.021 3.699l1.931 1.474 3.201-1.953a274.829 274.829 0 0 1 6.068-3.58c1.576-.894 3.606-2.096 4.51-2.67.904-.574 2.07-1.043 2.59-1.043.81 0 .91.185.691 1.278-.326 1.632-3.76 7.022-6.55 10.281l-2.157 2.52 2.713 2.771c3.528 3.603 5.709 6.847 8.862 13.18 2.53 5.083 3.009 6.567 2.115 6.567-.249 0-1.588-.579-2.976-1.287-2.59-1.321-5.176-3.113-12.736-8.824a659.781 659.781 0 0 0-5.736-4.296l-1.399-1.018-.757 2.311c-2.154 6.582-8.091 15.76-10.195 15.76-.619 0-.678-.478-.454-3.654Zm-8.394 1.633c-1.327-1.046-1.433-1.322-1.433-3.729 0-2.387.127-2.726 1.558-4.157 1.305-1.305 1.868-1.558 3.473-1.558 2.218 0 2.665.412 3.39 3.121 1.497 5.599-2.88 9.56-6.988 6.323Zm3.505-13.5c-.791-.791-.638-2.763.277-3.591 1.183-1.071 3.407-.939 4.24.25.903 1.29.867 2.247-.12 3.14-.937.848-3.627.971-4.397.201Z"/></svg>

<svg
    xmlns="http://www.w3.org/2000/svg"
    viewBox="0 0 192 192"
    id="vector">
    <path
        id="path"
        d="M 88.749 175.745 C 54.698 172.364 26.686 148.38 18.361 115.48 C 14.608 100.646 15.362 83.87 20.424 69.554 C 24.495 58.041 30.147 49.015 38.88 40.081 C 52.162 26.495 68.39 18.574 87.406 16.395 C 91.747 15.898 104.78 15.992 105.312 16.524 C 105.443 16.655 104.796 17.93 103.874 19.358 C 102.952 20.786 101.82 22.793 101.359 23.818 L 100.52 25.682 L 95.406 25.684 C 80.089 25.692 65.045 30.913 52.813 40.467 C 48.8 43.601 42.695 49.77 39.736 53.681 C 32.502 63.242 27.654 75.308 26.118 87.574 C 25.376 93.503 25.805 104.393 27.003 110.015 C 33.049 138.391 55.182 159.98 83.678 165.296 C 90.282 166.528 103.165 166.416 109.473 165.071 C 134.77 159.679 154.727 142.212 162.605 118.568 C 165.365 110.288 166.068 105.837 166.102 96.451 C 166.121 91.22 165.913 86.914 165.549 84.987 C 164.984 82.004 164.996 81.878 165.905 81.239 C 166.423 80.875 168.316 79.44 170.112 78.049 L 173.377 75.52 L 173.81 77.167 C 175.681 84.293 176.49 96.109 175.643 103.947 C 171.545 141.86 142.183 171.432 104.529 175.569 C 100.546 176.007 92.309 176.098 88.749 175.745 Z M 76.062 117.707 C 66.509 108.119 66.261 107.825 66.261 106.078 C 66.261 104.949 66.59 103.868 67.15 103.156 C 68.199 101.823 70.585 100.932 72.094 101.311 C 72.683 101.459 75.826 104.245 79.077 107.503 C 82.328 110.761 85.195 113.427 85.447 113.427 C 85.699 113.427 92.73 106.085 101.071 97.112 C 109.412 88.14 116.268 80.798 116.307 80.798 C 116.345 80.798 117.944 81.691 119.859 82.782 C 121.774 83.874 123.582 84.766 123.876 84.766 C 124.171 84.766 124.535 84.965 124.685 85.208 C 124.893 85.545 97.318 115.682 87.463 125.887 L 85.863 127.543 Z M 131.205 59.507 C 131.436 56.231 132.358 51.675 133.277 49.271 C 133.911 47.611 135.116 43.241 134.971 43.128 C 134.891 43.065 132.627 42.783 129.94 42.5 C 123.64 41.837 117.189 40.248 117.189 39.359 C 117.189 38.326 120.445 36.801 123.807 36.258 C 126.588 35.809 132.676 35.968 134.707 36.543 C 135.256 36.698 134.918 35.864 133.494 33.555 C 132.335 31.674 131.519 29.819 131.519 29.062 C 131.519 27.797 131.558 27.776 133.463 27.991 C 135.772 28.251 138.82 29.657 141.484 31.69 L 143.415 33.164 L 146.616 31.211 C 148.377 30.137 151.108 28.526 152.684 27.631 C 154.26 26.737 156.29 25.535 157.194 24.961 C 158.098 24.387 159.264 23.918 159.784 23.918 C 160.594 23.918 160.694 24.103 160.475 25.196 C 160.149 26.828 156.715 32.218 153.925 35.477 L 151.768 37.997 L 154.481 40.768 C 158.009 44.371 160.19 47.615 163.343 53.948 C 165.873 59.031 166.352 60.515 165.458 60.515 C 165.209 60.515 163.87 59.936 162.482 59.228 C 159.892 57.907 157.306 56.115 149.746 50.404 C 147.36 48.601 144.779 46.669 144.01 46.108 L 142.611 45.09 L 141.854 47.401 C 139.7 53.983 133.763 63.161 131.659 63.161 C 131.04 63.161 130.981 62.683 131.205 59.507 Z M 122.811 61.14 C 121.484 60.094 121.378 59.818 121.378 57.411 C 121.378 55.024 121.505 54.685 122.936 53.254 C 124.241 51.949 124.804 51.696 126.409 51.696 C 128.627 51.696 129.074 52.108 129.799 54.817 C 131.296 60.416 126.919 64.377 122.811 61.14 Z M 126.316 47.64 C 125.525 46.849 125.678 44.877 126.593 44.049 C 127.776 42.978 130 43.11 130.833 44.299 C 131.736 45.589 131.7 46.546 130.713 47.439 C 129.776 48.287 127.086 48.41 126.316 47.64 Z"
        fill="#000000"
        stroke-width="12"/>
</svg>
